svg/l/GB-UKM.svg

<svg fill="none" height="24" viewBox="0 0 32 24" width="32" xmlns="http://www.w3.org/2000/svg" xmlns:xlink="http://www.w3.org/1999/xlink"><mask id="a" height="24" maskUnits="userSpaceOnUse" width="32" x="0" y="0"><path d="m0 0h32v24h-32z" fill="#fff"/></mask><mask id="b" height="24" maskUnits="userSpaceOnUse" width="32" x="0" y="0"><path clip-rule="evenodd" d="m0 0v24h32v-24z" fill="#fff" fill-rule="evenodd"/></mask><mask id="c" height="24" maskUnits="userSpaceOnUse" width="32" x="0" y="0"><path d="m0 0h32v24h-32z" fill="#fff"/></mask><mask id="d" fill="#fff"><path clip-rule="evenodd" d="m19.7777-2h-7.5555v10h-14.19473v8h14.19473v10h7.5555v-10h14.2498v-8h-14.2498z" fill="#fff" fill-rule="evenodd"/></mask><g mask="url(#a)"><path clip-rule="evenodd" d="m0 0v24h32v-24z" fill="#2e42a5" fill-rule="evenodd"/><g mask="url(#b)"><g mask="url(#c)"><path d="m-3.56323 22.2854 7.04169 2.978 28.68124-22.02559 3.7143-4.42548-7.53-.99536-11.6984 9.49147-9.41604 6.39506z" fill="#fff"/><path d="m-2.59924 24.3719 3.587413 1.7282 33.552027-27.69894h-5.0371z" fill="#f50100"/><path d="m35.5631 22.2854-7.0417 2.978-28.681217-22.02559-3.714333-4.42548 7.53008-.99536 11.69837 9.49147 9.416 6.39506z" fill="#fff"/><path d="m35.3229 23.7829-3.5874 1.7282-14.2868-11.8593-4.2358-1.3251-17.44441-13.49916h5.037147l17.434663 13.17876 4.631 1.5889z" fill="#f50100"/><path clip-rule="evenodd" d="m19.7777-2h-7.5555v10h-14.19473v8h14.19473v10h7.5555v-10h14.2498v-8h-14.2498z" fill="#f50100" fill-rule="evenodd"/><path d="m12.2222-2v-2h-2v2zm7.5555 0h2v-2h-2zm-7.5555 10v2h2v-2zm-14.19473 0v-2h-2v2zm0 8h-2v2h2zm14.19473 0h2v-2h-2zm0 10h-2v2h2zm7.5555 0v2h2v-2zm0-10v-2h-2v2zm14.2498 0v2h2v-2zm0-8h2v-2h-2zm-14.2498 0h-2v2h2zm-7.5555-8h7.5555v-4h-7.5555zm2 8v-10h-4v10zm-16.19473 2h14.19473v-4h-14.19473zm1.9999958 6v-8h-3.9999958v8zm12.1947342-2h-14.19473v4h14.19473zm2 12v-10h-4v10zm5.5555-2h-7.5555v4h7.5555zm-2-8v10h4v-10zm16.2498-2h-14.2498v4h14.2498zm-2-6v8h4v-8zm-12.2498 2h14.2498v-4h-14.2498zm-2-12v10h4v-10z" fill="#fff" mask="url(#d)"/></g></g></g></svg>

<svg width="32" height="24" viewBox="0 0 32 24" fill="none" xmlns="http://www.w3.org/2000/svg">
<mask id="mask0" mask-type="alpha" maskUnits="userSpaceOnUse" x="0" y="0" width="32" height="24">
<rect width="32" height="24" fill="white"/>
</mask>
<g mask="url(#mask0)">
<path fill-rule="evenodd" clip-rule="evenodd" d="M0 0V24H32V0H0Z" fill="#2E42A5"/>
<mask id="mask1" mask-type="alpha" maskUnits="userSpaceOnUse" x="0" y="0" width="32" height="24">
<path fill-rule="evenodd" clip-rule="evenodd" d="M0 0V24H32V0H0Z" fill="white"/>
</mask>
<g mask="url(#mask1)">
<mask id="mask2" mask-type="alpha" maskUnits="userSpaceOnUse" x="0" y="0" width="32" height="24">
<rect width="32" height="24" fill="white"/>
</mask>
<g mask="url(#mask2)">
<path d="M-3.56323 22.2854L3.47846 25.2634L32.1597 3.23781L35.874 -1.18767L28.344 -2.18303L16.6456 7.30844L7.22956 13.7035L-3.56323 22.2854Z" fill="white"/>
<path d="M-2.59924 24.3719L0.988173 26.1001L34.5402 -1.59884H29.5031L-2.59924 24.3719Z" fill="#F50100"/>
<path d="M35.5631 22.2854L28.5214 25.2634L-0.159817 3.23781L-3.87415 -1.18767L3.65593 -2.18303L15.3543 7.30844L24.7703 13.7035L35.5631 22.2854Z" fill="white"/>
<path d="M35.3229 23.7829L31.7355 25.5111L17.4487 13.6518L13.2129 12.3267L-4.23151 -1.17246H0.805637L18.2403 12.0063L22.8713 13.5952L35.3229 23.7829Z" fill="#F50100"/>
<mask id="path-10-inside-1" fill="white">
<path fill-rule="evenodd" clip-rule="evenodd" d="M19.7777 -2H12.2222V8H-1.97253V16H12.2222V26H19.7777V16H34.0275V8H19.7777V-2Z"/>
</mask>
<path fill-rule="evenodd" clip-rule="evenodd" d="M19.7777 -2H12.2222V8H-1.97253V16H12.2222V26H19.7777V16H34.0275V8H19.7777V-2Z" fill="#F50100"/>
<path d="M12.2222 -2V-4H10.2222V-2H12.2222ZM19.7777 -2H21.7777V-4H19.7777V-2ZM12.2222 8V10H14.2222V8H12.2222ZM-1.97253 8V6H-3.97253V8H-1.97253ZM-1.97253 16H-3.97253V18H-1.97253V16ZM12.2222 16H14.2222V14H12.2222V16ZM12.2222 26H10.2222V28H12.2222V26ZM19.7777 26V28H21.7777V26H19.7777ZM19.7777 16V14H17.7777V16H19.7777ZM34.0275 16V18H36.0275V16H34.0275ZM34.0275 8H36.0275V6H34.0275V8ZM19.7777 8H17.7777V10H19.7777V8ZM12.2222 0H19.7777V-4H12.2222V0ZM14.2222 8V-2H10.2222V8H14.2222ZM-1.97253 10H12.2222V6H-1.97253V10ZM0.0274658 16V8H-3.97253V16H0.0274658ZM12.2222 14H-1.97253V18H12.2222V14ZM14.2222 26V16H10.2222V26H14.2222ZM19.7777 24H12.2222V28H19.7777V24ZM17.7777 16V26H21.7777V16H17.7777ZM34.0275 14H19.7777V18H34.0275V14ZM32.0275 8V16H36.0275V8H32.0275ZM19.7777 10H34.0275V6H19.7777V10ZM17.7777 -2V8H21.7777V-2H17.7777Z" fill="white" mask="url(#path-10-inside-1)"/>
</g>
</g>
</g>
</svg>
